assets/icons/colors-filled.svg

<?xml version="1.0" encoding="UTF-8" standalone="no"?>
<svg
   viewBox="0 0 24 24"
   version="1.1"
   id="svg4"
   sodipodi:docname="colors-filled.svg"
   inkscape:version="1.2 (1:1.2.1+202207142221+cd75a1ee6d)"
   width="24"
   height="24"
   xmlns:inkscape="http://www.inkscape.org/namespaces/inkscape"
   xmlns:sodipodi="http://sodipodi.sourceforge.net/DTD/sodipodi-0.dtd"
   xmlns="http://www.w3.org/2000/svg"
   xmlns:svg="http://www.w3.org/2000/svg"
   xmlns:rdf="http://www.w3.org/1999/02/22-rdf-syntax-ns#"
   xmlns:cc="http://creativecommons.org/ns#"
   xmlns:dc="http://purl.org/dc/elements/1.1/">
  <metadata
     id="metadata10">
    <rdf:RDF>
      <cc:Work
         rdf:about="">
        <dc:format>image/svg+xml</dc:format>
        <dc:type
           rdf:resource="http://purl.org/dc/dcmitype/StillImage" />
      </cc:Work>
    </rdf:RDF>
  </metadata>
  <defs
     id="defs8" />
  <sodipodi:namedview
     pagecolor="#ffffff"
     bordercolor="#666666"
     borderopacity="1"
     objecttolerance="10"
     gridtolerance="10"
     guidetolerance="10"
     inkscape:pageopacity="0"
     inkscape:pageshadow="2"
     inkscape:window-width="1920"
     inkscape:window-height="1043"
     id="namedview6"
     showgrid="false"
     inkscape:zoom="6.875"
     inkscape:cx="29.527273"
     inkscape:cy="-11.490909"
     inkscape:window-x="0"
     inkscape:window-y="0"
     inkscape:window-maximized="1"
     inkscape:current-layer="svg4"
     inkscape:pagecheckerboard="0"
     inkscape:showpageshadow="2"
     inkscape:deskcolor="#d1d1d1">
    <inkscape:grid
       type="xygrid"
       id="grid835" />
  </sodipodi:namedview>
  <path
     id="path577"
     style="fill:#808080;fill-rule:evenodd;stroke-width:2;stroke-linecap:round;stroke-linejoin:round"
     d="M 12 2 A 7 7 0 0 0 5 9 A 7 7 0 0 0 5.0175781 9.2578125 A 7 7 0 0 0 2 15 A 7 7 0 0 0 9 22 A 7 7 0 0 0 11.902344 21.353516 A 7 7 0 0 1 10.921875 20.761719 C 9.0887616 19.451565 7.9983875 17.339102 7.9921875 15.085938 C 7.9964575 14.9999 8.0022656 14.913945 8.0097656 14.828125 C 6.5385866 13.803671 5.5165251 12.253801 5.1542969 10.498047 A 7 7 0 0 1 5.0097656 9.34375 A 7 7 0 0 1 6.0175781 8.7539062 C 6.9479943 8.3154129 7.9636205 8.0873475 8.9921875 8.0859375 C 10.032188 8.0863937 11.059029 8.3185836 11.998047 8.765625 C 12.933494 8.3202782 13.956143 8.0881275 14.992188 8.0859375 C 16.026172 8.0856562 17.047392 8.3144461 17.982422 8.7558594 A 7 7 0 0 1 18.974609 9.3320312 A 7 7 0 0 1 18.835938 10.480469 C 18.47702 12.238155 17.456959 13.790969 15.986328 14.818359 C 15.990028 14.907506 15.99194 14.996718 15.992188 15.085938 C 15.986009 17.339102 14.895613 19.451565 13.0625 20.761719 A 7 7 0 0 1 12.087891 21.351562 A 7 7 0 0 0 15 22 A 7 7 0 0 0 22 15 A 7 7 0 0 0 18.982422 9.2460938 A 7 7 0 0 0 19 9 A 7 7 0 0 0 12 2 z M 8.9921875 9.0859375 C 7.9618505 9.0910931 6.9501937 9.3614962 6.0546875 9.8710938 C 6.2550381 11.356415 7.0040411 12.71298 8.1542969 13.673828 C 8.5100641 11.954003 9.4993184 10.430736 10.925781 9.40625 C 10.303165 9.1942194 9.6499161 9.0860045 8.9921875 9.0859375 z M 14.992188 9.0859375 C 14.341121 9.0875055 13.694644 9.1950316 13.078125 9.4042969 C 14.500354 10.427451 15.487204 11.946752 15.84375 13.662109 C 16.990066 12.698829 17.734793 11.341738 17.931641 9.8574219 C 17.034267 9.3522719 16.021971 9.0865868 14.992188 9.0859375 z M 9.0175781 15.417969 C 9.1322549 17.430298 10.24968 19.25061 11.992188 20.263672 C 13.734694 19.25061 14.852119 17.430298 14.966797 15.417969 C 14.036381 15.856462 13.020752 16.084538 11.992188 16.085938 C 10.963621 16.084528 9.9479943 15.856462 9.0175781 15.417969 z " />
</svg>

<svg width="24" height="24" xmlns="http://www.w3.org/2000/svg"><path style="fill:gray;stroke-width:2;stroke-linecap:round;stroke-linejoin:round" d="M12 2a7 7 0 0 0-7 7 7 7 0 0 0 .018.258A7 7 0 0 0 2 15a7 7 0 0 0 7 7 7 7 0 0 0 2.902-.646 7 7 0 0 1-.98-.592 7 7 0 0 1-2.93-5.676c.004-.086.01-.172.018-.258a7 7 0 0 1-2.856-4.33 7 7 0 0 1-.144-1.154 7 7 0 0 1 1.008-.59 7 7 0 0 1 2.974-.668 7 7 0 0 1 3.006.68 7 7 0 0 1 2.994-.68 7 7 0 0 1 2.99.67 7 7 0 0 1 .993.576 7 7 0 0 1-.14 1.148 7 7 0 0 1-2.849 4.338 7 7 0 0 1-2.924 5.943 7 7 0 0 1-.974.59A7 7 0 0 0 15 22a7 7 0 0 0 7-7 7 7 0 0 0-3.018-5.754A7 7 0 0 0 19 9a7 7 0 0 0-7-7zM8.992 9.086a6 6 0 0 0-2.937.785 6 6 0 0 0 2.1 3.803 7 7 0 0 1 2.77-4.268 6 6 0 0 0-1.933-.32zm6 0a6 6 0 0 0-1.914.318 7 7 0 0 1 2.766 4.258 6 6 0 0 0 2.088-3.805 6 6 0 0 0-2.94-.771zm-5.974 6.332a6 6 0 0 0 2.974 4.846 6 6 0 0 0 2.975-4.846 7 7 0 0 1-2.975.668 7 7 0 0 1-2.974-.668z"/></svg>
